logos/pluralsight-icon.svg

<?xml version="1.0" encoding="UTF-8"?>
<svg width="256px" height="256px" viewBox="0 0 256 256" version="1.1" xmlns="http://www.w3.org/2000/svg" preserveAspectRatio="xMidYMid">
    <title>Pluralsight</title>
    <defs>
        <linearGradient x1="49.9986825%" y1="1.57575758%" x2="49.9986825%" y2="100.442688%" id="pluralsightLinearGradient-1">
            <stop stop-color="#DF5430" offset="0%"></stop>
            <stop stop-color="#D7197E" offset="100%"></stop>
        </linearGradient>
    </defs>
    <g>
        <path d="M256,128 C256,198.695125 198.68989,256 127.996627,256 C57.3033649,256 0,198.695125 0,128 C0,57.3048748 57.3033649,0 127.996627,0 C198.68989,0 256,57.3048748 256,128" fill="url(#pluralsightLinearGradient-1)"></path>
        <path d="M95.0918816,61.4788543 L95.0918816,194.507655 L210.298964,127.996627 L95.0918816,61.4788543 Z M106.12084,80.5822244 L188.241048,127.996627 L106.12084,175.41103 L106.12084,80.5822244 L106.12084,80.5822244 Z" fill="#FFFFFE"></path>
        <path d="M68.6088904,76.0020026 L68.6088904,179.984506 L158.655108,127.989882 L68.6088904,76.0020026 Z M79.6378488,95.1053727 L136.603937,127.989882 L79.6378488,160.887882 L79.6378488,95.1053727 L79.6378488,95.1053727 Z" fill="#FFFFFE"></path>
    </g>
</svg>

<svg preserveAspectRatio="xMidYMid" viewBox="0 0 256 256" xmlns="http://www.w3.org/2000/svg">
  <defs>
    <linearGradient id="pluralsight-icon_svg__a" x1="49.999%" x2="49.999%" y1="1.576%" y2="100.443%">
      <stop offset="0%" stop-color="#DF5430"/>
      <stop offset="100%" stop-color="#D7197E"/>
    </linearGradient>
  </defs>
  <path fill="url(#pluralsight-icon_svg__a)" d="M256 128c0 70.695-57.31 128-128.003 128C57.303 256 0 198.695 0 128S57.303 0 127.997 0C198.69 0 256 57.305 256 128"/>
  <path fill="#FFFFFE" d="M95.092 61.479v133.029l115.207-66.511L95.092 61.479Zm11.029 19.103 82.12 47.415-82.12 47.414V80.582Z"/>
  <path fill="#FFFFFE" d="M68.609 76.002v103.983l90.046-51.995L68.61 76.002Zm11.029 19.103 56.966 32.885-56.966 32.898V95.105Z"/>
</svg>
